X: 7
T: The Jig Of Slurs
R: jig
M: 6/8
L: 1/8
K: Dmaj
|: Add cdd | Bdd Add | Bdd Add | B2e edB |
| Add cdd | Bdd Add | Bdd cde | fdc d2B :|
|: A2f fef | a2f fed | B2e ede | fed edB |
| A2f fef | a2f fed | Bcd cde | fdc d2B:|
K: Gmaj
|: G2g gfg | agf gdB | G2g gfg | agf ~g3 |
| G2g gfg | agf ged | B2e efg | fed edB :|
|: GBB Bdd | dee edB | GBB Bdd | dee efg |
| GBB Bdd | dee edB | B2e efg fed edB :|


Tune 35	Setting 29236

